packages/core/src/svgs/tokens/branded/OAS.svg

<svg width="24" height="24" viewBox="0 0 24 24" fill="none" xmlns="http://www.w3.org/2000/svg">
<path d="M11.9999 13.9982C13.3261 13.9982 14.5979 13.4715 15.5355 12.5337C16.4732 11.5961 17 10.3243 17 8.99821C17 7.67214 16.4732 6.40037 15.5355 5.46269C14.5979 4.525 13.3261 3.99823 11.9999 3.99823C10.6739 3.99823 9.40214 4.525 8.46445 5.46269C7.52677 6.40037 7 7.67214 7 8.99821C7 10.3243 7.52677 11.5961 8.46445 12.5337C9.40214 13.4715 10.6739 13.9982 11.9999 13.9982ZM17.485 8.61322C19.685 9.66321 21.0999 11.3332 21.0999 13.2082C21.0999 15.3532 19.2499 17.2232 16.5 18.2131C16.4683 18.6319 16.3399 19.0375 16.125 19.3982C19.59 18.3282 22 15.9582 22 13.2082C22 10.7732 20.11 8.63822 17.275 7.43822C17.385 7.81322 17.4599 8.20822 17.485 8.61322ZM19.4899 13.5732C19.4899 15.1882 18.295 16.6182 16.4499 17.5082C16.3819 17.1782 16.2549 16.8631 16.075 16.5782C17.195 15.9282 17.895 15.0032 17.895 13.9832C17.895 13.1732 17.455 12.4333 16.715 11.8332C17.025 11.3183 17.2481 10.7557 17.375 10.1682C18.6849 11.0482 19.4899 12.2482 19.4899 13.5732ZM15.91 17.7482C15.8678 17.4227 15.7588 17.1096 15.59 16.8282C14.4611 17.3328 13.2364 17.5869 11.9999 17.5732C10.65 17.5732 9.39999 17.2932 8.40999 16.8282C8.24116 17.1096 8.13223 17.4227 8.08999 17.7482C9.22998 18.2032 10.5649 18.4682 11.9999 18.4682C13.4349 18.4682 14.7699 18.2032 15.91 17.7482ZM16.5899 14.1982C16.5899 14.8982 16.245 15.5382 15.665 16.0532C15.3283 15.7052 14.9342 15.4176 14.5 15.2032C14.55 15.0782 14.57 14.9482 14.57 14.8133C14.57 14.5232 14.465 14.2482 14.2749 14.0083C14.9449 13.7032 15.5399 13.2682 16.035 12.7332C16.39 13.1732 16.5899 13.6732 16.5899 14.2032V14.1982ZM15.2549 16.3732C14.9743 16.0668 14.6428 15.8115 14.2749 15.6183C13.845 16.1682 12.985 16.5382 11.9999 16.5382C11.015 16.5382 10.155 16.1632 9.72494 15.6183C9.35758 15.8099 9.02605 16.0637 8.74499 16.3682C9.71724 16.9848 10.8489 17.3029 11.9999 17.2832C13.27 17.2832 14.425 16.9332 15.25 16.3782L15.2549 16.3732ZM9.42998 14.8133C9.42998 14.9482 9.45499 15.0782 9.49998 15.2082C9.04999 15.4332 8.64999 15.7233 8.33499 16.0582C8.05662 15.8336 7.8299 15.5516 7.67029 15.2315C7.51067 14.9115 7.42189 14.5607 7.40999 14.2032C7.40999 13.6732 7.60999 13.1732 7.95999 12.7332C8.45774 13.2713 9.05777 13.7047 9.72494 14.0083C9.53498 14.2482 9.42998 14.5232 9.42998 14.8082V14.8133ZM6.10499 13.9832C6.10499 15.0032 6.80499 15.9232 7.92499 16.5782C7.74504 16.8631 7.61801 17.1782 7.54999 17.5082C5.69999 16.6182 4.51 15.1882 4.51 13.5732C4.51 12.2482 5.30999 11.0482 6.625 10.1682C6.755 10.7632 6.975 11.3182 7.28499 11.8282C6.54499 12.4282 6.10499 13.1782 6.10499 13.9832ZM2.90501 13.2082C2.90501 15.3532 4.755 17.2232 7.50499 18.2131C7.52999 18.6331 7.66498 19.0332 7.87499 19.3982C4.41 18.3282 2 15.9582 2 13.2082C2 10.7732 3.89 8.63822 6.72499 7.43822C6.615 7.81322 6.53999 8.20822 6.51499 8.61322C4.315 9.66321 2.9 11.3332 2.9 13.2082H2.90501ZM11.9999 18.9682C10.605 18.9682 9.28499 18.7682 8.10499 18.4132C8.17998 18.8532 8.38499 19.2631 8.68499 19.6131C10.8629 20.1313 13.1321 20.1313 15.31 19.6131C15.6089 19.2728 15.811 18.8583 15.895 18.4132C14.715 18.7632 13.395 18.9632 11.9999 18.9632V18.9682Z" fill="#529C92"/>
</svg>

<svg xmlns="http://www.w3.org/2000/svg" width="24" height="24" fill="none" viewBox="0 0 24 24">
    <path fill="#529C92" d="M12 13.998A5 5 0 1 0 12 4a5 5 0 0 0 0 9.998m5.485-5.385c2.2 1.05 3.615 2.72 3.615 4.595 0 2.145-1.85 4.015-4.6 5.005-.032.419-.16.825-.375 1.185 3.465-1.07 5.875-3.44 5.875-6.19 0-2.435-1.89-4.57-4.725-5.77.11.375.185.77.21 1.175m2.005 4.96c0 1.615-1.195 3.045-3.04 3.935a2.8 2.8 0 0 0-.375-.93c1.12-.65 1.82-1.575 1.82-2.595 0-.81-.44-1.55-1.18-2.15.31-.515.533-1.077.66-1.665 1.31.88 2.115 2.08 2.115 3.405m-3.58 4.175a2.4 2.4 0 0 0-.32-.92 8.6 8.6 0 0 1-3.59.745c-1.35 0-2.6-.28-3.59-.745a2.4 2.4 0 0 0-.32.92c1.14.455 2.475.72 3.91.72s2.77-.265 3.91-.72m.68-3.55c0 .7-.345 1.34-.925 1.855a4.2 4.2 0 0 0-1.165-.85c.05-.125.07-.255.07-.39 0-.29-.105-.565-.295-.805a5.5 5.5 0 0 0 1.76-1.275c.355.44.555.94.555 1.47zm-1.335 2.175a3.6 3.6 0 0 0-.98-.755c-.43.55-1.29.92-2.275.92s-1.845-.375-2.275-.92a3.6 3.6 0 0 0-.98.75 5.9 5.9 0 0 0 3.255.915c1.27 0 2.425-.35 3.25-.905zm-5.825-1.56q.001.201.07.395c-.45.225-.85.515-1.165.85a2.5 2.5 0 0 1-.925-1.855c0-.53.2-1.03.55-1.47a5.5 5.5 0 0 0 1.765 1.275c-.19.24-.295.515-.295.8zm-3.325-.83c0 1.02.7 1.94 1.82 2.595a2.8 2.8 0 0 0-.375.93c-1.85-.89-3.04-2.32-3.04-3.935 0-1.325.8-2.525 2.115-3.405q.195.894.66 1.66c-.74.6-1.18 1.35-1.18 2.155m-3.2-.775c0 2.145 1.85 4.015 4.6 5.005.025.42.16.82.37 1.185C4.41 18.328 2 15.958 2 13.208c0-2.435 1.89-4.57 4.725-5.77-.11.375-.185.77-.21 1.175-2.2 1.05-3.615 2.72-3.615 4.595zM12 18.968c-1.395 0-2.715-.2-3.895-.555.075.44.28.85.58 1.2a14.3 14.3 0 0 0 6.625 0 2.53 2.53 0 0 0 .585-1.2c-1.18.35-2.5.55-3.895.55z"/>
</svg>
